X: 71
T: No_165_He_Killed_a_Man.krn
%%abc-version 2.0
%%abcx-abcm2ps-target-version 5.9.1 (29 Sep 2008)
%%abc-creator hum2abc beta
%%abcx-conversion-date 2020/08/10 18:54:56
%%gracespace 0 6 6
%%humdrum-veritas 944562791
%%humdrum-veritas-data 2181102243
%%linebreak <none>
%%barnumbers 0
L: 1/4
M: 5/4
%%staves {1 2}
V: 1 clef=bass
V: 2 clef=bass
K: B
[V:1] [K:clef=bass][M:5/4]D2>C2B, | 
[V:2] [K:clef=bass][M:5/4]G,,/G,,/G,,/G,,/G,,/G,,/ G,,/G,,/G,,/G,,/ | 
[V:1] C2>B,2!tenuto!G, | 
[V:2] z4z | 
[V:1] B,2>G,2F, | 
[V:2] z4z | 
[V:1] G,2>F,2D, | 
[V:2] z4z | 
[V:1] F,2>F,2D, ||  
[V:2] z4z ||  
[V:1] [M:6/4]D,D,2-D,2z/ D/ ||  
[V:2] [M:6/4]z6 ||  
[V:1] [M:5/4]DB,/B,/G,2B, ||  
[V:2] [M:5/4]z4z ||  
[V:1] [M:3/4]G,F,D,3//D,// | 
[V:2] [M:3/4]z3 | 
[V:1] G,2G, | 
[V:2] z3 | 
[V:1] G,F,D,3//D,// ||  
[V:2] z3 ||  
[V:1] [M:5/4]F,2>F,2D, ||  
[V:2] [M:5/4]z4z ||  
[V:1] [M:3/4]D,D,/<D,/- D,3//D,// | 
[V:2] [M:3/4]z3 | 
[V:1] D,3 |]  
[V:2] z3 |]  


